overrides/.icons/d20/save.svg

<?xml version="1.0" encoding="UTF-8" standalone="no"?>
<svg
   height="24"
   viewBox="0 0 24 24"
   width="24"
   version="1.1"
   id="svg2"
   sodipodi:docname="save.svg"
   inkscape:version="1.3.2 (091e20e, 2023-11-25, custom)"
   xml:space="preserve"
   xmlns:inkscape="http://www.inkscape.org/namespaces/inkscape"
   xmlns:sodipodi="http://sodipodi.sourceforge.net/DTD/sodipodi-0.dtd"
   xmlns="http://www.w3.org/2000/svg"
   xmlns:svg="http://www.w3.org/2000/svg"><defs
     id="defs2" /><sodipodi:namedview
     id="namedview2"
     pagecolor="#ffffff"
     bordercolor="#111111"
     borderopacity="1"
     inkscape:showpageshadow="0"
     inkscape:pageopacity="0"
     inkscape:pagecheckerboard="1"
     inkscape:deskcolor="#d1d1d1"
     inkscape:zoom="5.40625"
     inkscape:cx="0.1849711"
     inkscape:cy="15.445087"
     inkscape:window-width="1366"
     inkscape:window-height="697"
     inkscape:window-x="-8"
     inkscape:window-y="-8"
     inkscape:window-maximized="1"
     inkscape:current-layer="svg2" /><path
     id="path1-8"
     style="stroke-width:1;stroke-dasharray:none"
     d="m 12,1.2500005 c -0.225906,0 -0.439898,0.065168 -0.611886,0.1939638 L 2.8936945,6.2170762 C 2.5495565,6.399911 2.3258,6.7543632 2.3258,7.1629002 v 9.6741988 c 0,0.408495 0.2240423,0.763071 0.5678945,0.945825 l 8.4944195,4.773112 C 11.559981,22.685224 11.774056,22.75 12,22.75 c 0.225907,0 0.439898,-0.06517 0.611886,-0.193964 l 8.494419,-4.773112 C 21.450444,17.600073 21.6742,17.245595 21.6742,16.837099 V 7.1629002 c 0,-0.408537 -0.224041,-0.7630684 -0.567895,-0.945824 L 12.611886,1.4439643 C 12.440019,1.3147618 12.225539,1.2500005 12,1.2500005 Z m 0,2.5595237 c 0.171839,0 0.334967,0.049533 0.465913,0.1479724 l 6.472796,3.6373233 c 0.261983,0.1392422 0.43192,0.4085997 0.43192,0.719866 v 7.3706291 c 0,0.311234 -0.16972,0.580551 -0.43192,0.719865 l -6.472796,3.637324 C 12.334875,20.140633 12.172119,20.190477 12,20.190477 c -0.172148,0 -0.334967,-0.04954 -0.465913,-0.147973 L 5.061291,16.40518 C 4.7993085,16.26594 4.6293714,15.996549 4.6293714,15.685315 V 8.3146859 c 1e-7,-0.3112663 0.1697193,-0.5805634 0.4319196,-0.719866 L 11.534087,3.9574966 C 11.665125,3.8593656 11.827881,3.8095242 12,3.8095242 Z" /><path
     d="m 17.113637,11.431818 c 0,3.153409 -2.181818,6.102272 -5.113636,6.818182 C 9.0681817,17.53409 6.8863632,14.585227 6.8863632,11.431818 V 8.0227272 L 12,5.7499998 17.113636,8.0227272 Z m -5.113636,5.681818 c 2.130681,-0.568182 3.977272,-3.102273 3.977272,-5.556818 V 8.7613641 L 12,6.9886361 Z"
     id="path1"
     style="stroke-width:0.999994" /></svg>

<?xml version="1.0" encoding="UTF-8"?>
<svg id="svg2" width="24" height="24" version="1.1" viewBox="0 0 24 24" xml:space="preserve" xmlns="http://www.w3.org/2000/svg"><path id="path1-8" d="m12 1.25c-0.22591 0-0.4399 0.065168-0.61189 0.19396l-8.4944 4.7731c-0.34414 0.18283-0.56789 0.53729-0.56789 0.94582v9.6742c0 0.4085 0.22404 0.76307 0.56789 0.94582l8.4944 4.7731c0.17187 0.12919 0.38594 0.19396 0.61189 0.19396 0.22591 0 0.4399-0.06517 0.61189-0.19396l8.4944-4.7731c0.34414-0.18285 0.5679-0.53733 0.5679-0.94582v-9.6742c0-0.40854-0.22404-0.76307-0.5679-0.94582l-8.4944-4.7731c-0.17187-0.1292-0.38635-0.19396-0.61189-0.19396zm0 2.5595c0.17184 0 0.33497 0.049533 0.46591 0.14797l6.4728 3.6373c0.26198 0.13924 0.43192 0.4086 0.43192 0.71987v7.3706c0 0.31123-0.16972 0.58055-0.43192 0.71986l-6.4728 3.6373c-0.13104 0.098129-0.29379 0.14797-0.46591 0.14797-0.17215 0-0.33497-0.04954-0.46591-0.14797l-6.4728-3.6373c-0.26198-0.13924-0.43192-0.40863-0.43192-0.71986v-7.3706c1e-7 -0.31127 0.16972-0.58056 0.43192-0.71987l6.4728-3.6373c0.13104-0.098131 0.29379-0.14797 0.46591-0.14797z"/><path id="path1" d="m17.114 11.432c0 3.1534-2.1818 6.1023-5.1136 6.8182-2.9318-0.71591-5.1136-3.6648-5.1136-6.8182v-3.4091l5.1136-2.2727 5.1136 2.2727zm-5.1136 5.6818c2.1307-0.56818 3.9773-3.1023 3.9773-5.5568v-2.7955l-3.9773-1.7727z" stroke-width=".99999"/></svg>
